src/asset/24px/exit.svg

<svg width="24" height="24" viewBox="0 0 24 24" fill="none" xmlns="http://www.w3.org/2000/svg">
<path fill-rule="evenodd" clip-rule="evenodd" d="M13 4C13 3.44772 13.4477 3 14 3H18C19.6569 3 21 4.34315 21 6V18C21 19.6569 19.6569 21 18 21H14C13.4477 21 13 20.5523 13 20C13 19.4477 13.4477 19 14 19H18C18.5523 19 19 18.5523 19 18V6C19 5.44772 18.5523 5 18 5H14C13.4477 5 13 4.55228 13 4ZM8.70711 6.29289C9.09763 6.68342 9.09763 7.31658 8.70711 7.70711L5.41421 11H14C14.5523 11 15 11.4477 15 12C15 12.5523 14.5523 13 14 13H5.41421L8.70711 16.2929C9.09763 16.6834 9.09763 17.3166 8.70711 17.7071C8.31658 18.0976 7.68342 18.0976 7.29289 17.7071L2.29289 12.7071C1.90237 12.3166 1.90237 11.6834 2.29289 11.2929L7.29289 6.29289C7.68342 5.90237 8.31658 5.90237 8.70711 6.29289Z" fill="#808080"/>
</svg>

<svg width="24" height="24" fill="none" xmlns="http://www.w3.org/2000/svg"><path fill-rule="evenodd" clip-rule="evenodd" d="M13 4a1 1 0 011-1h4a3 3 0 013 3v12a3 3 0 01-3 3h-4a1 1 0 110-2h4a1 1 0 001-1V6a1 1 0 00-1-1h-4a1 1 0 01-1-1zM8.707 6.293a1 1 0 010 1.414L5.414 11H14a1 1 0 110 2H5.414l3.293 3.293a1 1 0 11-1.414 1.414l-5-5a1 1 0 010-1.414l5-5a1 1 0 011.414 0z" fill="gray"/></svg>
